packages/icons/src/components/Icon/assets/small-solid/pencil.svg

<svg width="16" height="16" viewBox="0 0 16 16" fill="none" xmlns="http://www.w3.org/2000/svg">
<path d="M14.402 1.59799C13.6047 0.80067 12.312 0.80067 11.5147 1.59799L6.5428 6.56985C6.2449 6.86776 6.00858 7.22142 5.84735 7.61064L4.8583 9.99827C4.72286 10.3252 4.79771 10.7016 5.04795 10.9518C5.29819 11.2021 5.67454 11.277 6.00151 11.1415L8.38944 10.1525C8.77872 9.99126 9.13242 9.75492 9.43036 9.45699L14.402 4.48534C15.1993 3.68802 15.1993 2.39531 14.402 1.59799Z" fill="black"/>
<path d="M4.20833 2.75C3.40291 2.75 2.75 3.40291 2.75 4.20833V11.7916C2.75 12.5971 3.40291 13.25 4.20833 13.25H11.7916C12.5971 13.25 13.25 12.5971 13.25 11.7916V9.16665C13.25 8.6834 13.6417 8.29165 14.125 8.29165C14.6082 8.29165 15 8.6834 15 9.16665V11.7916C15 13.5636 13.5636 15 11.7916 15H4.20833C2.43642 15 1 13.5636 1 11.7916V4.20833C1 2.43642 2.43642 1 4.20833 1H6.83332C7.31657 1 7.70832 1.39175 7.70832 1.875C7.70832 2.35825 7.31657 2.75 6.83332 2.75H4.20833Z" fill="black"/>
</svg>

<svg xmlns="http://www.w3.org/2000/svg" width="16" height="16" fill="none" viewBox="0 0 16 16">
    <path d="M14.402 1.598a2.04 2.04 0 0 0-2.887 0L6.543 6.57a3.2 3.2 0 0 0-.696 1.04l-.989 2.388a.875.875 0 0 0 1.144 1.144l2.387-.99a3.2 3.2 0 0 0 1.041-.695l4.972-4.972a2.04 2.04 0 0 0 0-2.887"/>
    <path d="M4.208 2.75c-.805 0-1.458.653-1.458 1.458v7.584c0 .805.653 1.458 1.458 1.458h7.584c.805 0 1.458-.653 1.458-1.458V9.167a.875.875 0 1 1 1.75 0v2.625A3.21 3.21 0 0 1 11.792 15H4.208A3.21 3.21 0 0 1 1 11.792V4.208A3.21 3.21 0 0 1 4.208 1h2.625a.875.875 0 1 1 0 1.75z"/>
</svg>
